static/img/kroki/5ea964257f588e8946587b22d268ed17.svg

<?xml version="1.0" encoding="us-ascii" standalone="no"?><svg xmlns="http://www.w3.org/2000/svg" xmlns:xlink="http://www.w3.org/1999/xlink" contentStyleType="text/css" height="252px" preserveAspectRatio="none" style="width:421px;height:252px;" version="1.1" viewBox="0 0 421 252" width="421px" zoomAndPan="magnify"><defs/><g><!--class azure_mysql_server--><g id="elem_azure_mysql_server"><rect codeLine="23" fill="#3D176E" height="39.7891" id="azure_mysql_server" rx="2.5" ry="2.5" style="stroke:#000D19;stroke-width:0.5;" width="208" x="199" y="7"/><ellipse cx="214" cy="26.8945" fill="#ADD1B2" rx="11" ry="11" style="stroke:#181818;stroke-width:1.0;"/><path d="M216.9688,32.5352 Q216.3906,32.832 215.75,32.9727 Q215.1094,33.1289 214.4063,33.1289 Q211.9063,33.1289 210.5781,31.4883 Q209.2656,29.832 209.2656,26.707 Q209.2656,23.582 210.5781,21.9258 Q211.9063,20.2695 214.4063,20.2695 Q215.1094,20.2695 215.75,20.4258 Q216.4063,20.582 216.9688,20.8789 L216.9688,23.5977 Q216.3438,23.0195 215.75,22.7539 Q215.1563,22.4727 214.5313,22.4727 Q213.1875,22.4727 212.5,23.5508 Q211.8125,24.6133 211.8125,26.707 Q211.8125,28.8008 212.5,29.8789 Q213.1875,30.9414 214.5313,30.9414 Q215.1563,30.9414 215.75,30.6758 Q216.3438,30.3945 216.9688,29.8164 L216.9688,32.5352 Z " fill="#000000"/><text fill="#D9B8FF" font-family="Helvetica" font-size="17" lengthAdjust="spacing" textLength="166" x="233" y="32.7798">azure_mysql_server</text></g><!--class azure_mysql_server_ad_administrator--><g id="elem_azure_mysql_server_ad_administrator"><rect codeLine="26" fill="#3D176E" height="39.7891" id="azure_mysql_server_ad_administrator" rx="2.5" ry="2.5" style="stroke:#000D19;stroke-width:0.5;" width="360" x="7" y="106.79"/><ellipse cx="22" cy="126.6845" fill="#ADD1B2" rx="11" ry="11" style="stroke:#181818;stroke-width:1.0;"/><path d="M24.9688,132.3252 Q24.3906,132.622 23.75,132.7627 Q23.1094,132.9189 22.4063,132.9189 Q19.9063,132.9189 18.5781,131.2783 Q17.2656,129.622 17.2656,126.497 Q17.2656,123.372 18.5781,121.7158 Q19.9063,120.0595 22.4063,120.0595 Q23.1094,120.0595 23.75,120.2158 Q24.4063,120.372 24.9688,120.6689 L24.9688,123.3877 Q24.3438,122.8095 23.75,122.5439 Q23.1563,122.2627 22.5313,122.2627 Q21.1875,122.2627 20.5,123.3408 Q19.8125,124.4033 19.8125,126.497 Q19.8125,128.5908 20.5,129.6689 Q21.1875,130.7314 22.5313,130.7314 Q23.1563,130.7314 23.75,130.4658 Q24.3438,130.1845 24.9688,129.6064 L24.9688,132.3252 Z " fill="#000000"/><text fill="#D9B8FF" font-family="Helvetica" font-size="17" lengthAdjust="spacing" textLength="318" x="41" y="132.5698">azure_mysql_server_ad_administrator</text></g><!--class microsoft_graph_user--><g id="elem_microsoft_graph_user"><rect codeLine="29" fill="#3D176E" height="39.7891" id="microsoft_graph_user" rx="2.5" ry="2.5" style="stroke:#000D19;stroke-width:0.5;" width="222" x="192" y="206.58"/><ellipse cx="207" cy="226.4745" fill="#ADD1B2" rx="11" ry="11" style="stroke:#181818;stroke-width:1.0;"/><path d="M209.9688,232.1152 Q209.3906,232.412 208.75,232.5527 Q208.1094,232.7089 207.4063,232.7089 Q204.9063,232.7089 203.5781,231.0683 Q202.2656,229.412 202.2656,226.287 Q202.2656,223.162 203.5781,221.5058 Q204.9063,219.8495 207.4063,219.8495 Q208.1094,219.8495 208.75,220.0058 Q209.4063,220.162 209.9688,220.4589 L209.9688,223.1777 Q209.3438,222.5995 208.75,222.3339 Q208.1563,222.0527 207.5313,222.0527 Q206.1875,222.0527 205.5,223.1308 Q204.8125,224.1933 204.8125,226.287 Q204.8125,228.3808 205.5,229.4589 Q206.1875,230.5214 207.5313,230.5214 Q208.1563,230.5214 208.75,230.2558 Q209.3438,229.9745 209.9688,229.3964 L209.9688,232.1152 Z " fill="#000000"/><text fill="#D9B8FF" font-family="Helvetica" font-size="17" lengthAdjust="spacing" textLength="180" x="226" y="232.3598">microsoft_graph_user</text></g><!--link azure_mysql_server to azure_mysql_server_ad_administrator--><g id="link_azure_mysql_server_azure_mysql_server_ad_administrator"><path codeLine="32" d="M280.08,47.22 C259.75,64.36 234.7763,85.4014 214.4563,102.5414 " fill="none" id="azure_mysql_server-to-azure_mysql_server_ad_administrator" style="stroke:#1A83AF;stroke-width:2.0;"/><polygon fill="#1A83AF" points="209.87,106.41,219.3285,103.6647,213.6919,103.1862,214.1704,97.5496,209.87,106.41" style="stroke:#1A83AF;stroke-width:2.0;"/></g><!--link azure_mysql_server to microsoft_graph_user--><g id="link_azure_mysql_server_microsoft_graph_user"><path codeLine="33" d="M332.81,47.05 C351.66,61.04 374.4,81.89 385,106.79 C391.92,123.06 391.92,130.31 385,146.58 C374.4,171.48 356.4768,188.7525 337.6268,202.7525 " fill="none" id="azure_mysql_server-to-microsoft_graph_user" style="stroke:#1A83AF;stroke-width:2.0;"/><polygon fill="#1A83AF" points="332.81,206.33,342.4202,204.175,336.824,203.3488,337.6502,197.7526,332.81,206.33" style="stroke:#1A83AF;stroke-width:2.0;"/></g><!--link azure_mysql_server_ad_administrator to microsoft_graph_user--><g id="link_azure_mysql_server_ad_administrator_microsoft_graph_user"><path codeLine="34" d="M209.92,147.01 C230.25,164.15 255.2237,185.1914 275.5437,202.3314 " fill="none" id="azure_mysql_server_ad_administrator-to-microsoft_graph_user" style="stroke:#1A83AF;stroke-width:2.0;"/><polygon fill="#1A83AF" points="280.13,206.2,275.8296,197.3396,276.3081,202.9762,270.6715,203.4547,280.13,206.2" style="stroke:#1A83AF;stroke-width:2.0;"/></g><!--SRC=[ZP91Qy9048Nl-HKBdWLJQTLB8GhINgJKtae9OtRMB6PtqvcDegN_lR7M4XCrmfxcVRptPjXKInHeShyL1iq2YGDUQPi3WH4HaTjCNEP8T9G2rH_KnQcplXMOWK7nXDaQlKwWJhobEbbPP1Pt5MaCoMf9hh3oOEy9B9SIMb-X9XamHzwJNXGUAsNaQ35KgaxMJJjz6GuUi84vaaX_IA_Na-6eZhH6NTtxdvZh7OgmUhIPyzYesOZufQwst1ELaer5Z_h5ZYyWfRPBSL-PlHuwaKKwcSzJa6wpfnLaN8rXZuJERtESDBR2qL2gmLdu-H8S9FlJ2TWLXB7PycSMCzAwxFCL1DyNrHXa-OoscikFvDq9RdH2ZftoyP8WJ-E2ZtPdOhhldJ0QzgFfH_Vnbg1MZtFfmIqRjBly0000]--></g></svg>

<svg xmlns="http://www.w3.org/2000/svg" width="421" height="252" viewBox="0 0 421 252"><rect width="208" height="39.789" x="199" y="7" fill="#3D176E" rx="2.5" ry="2.5" style="stroke:#000d19;stroke-width:.5"/><circle cx="214" cy="26.895" r="11" fill="#ADD1B2" style="stroke:#181818;stroke-width:1"/><path d="M216.969 32.535q-.578.297-1.219.438-.64.156-1.344.156-2.5 0-3.828-1.64-1.312-1.657-1.312-4.782t1.312-4.781q1.328-1.656 3.828-1.656.703 0 1.344.156.656.156 1.219.453v2.719q-.625-.578-1.219-.844-.594-.281-1.219-.281-1.344 0-2.031 1.078-.687 1.062-.687 3.156t.687 3.172q.688 1.062 2.031 1.062.625 0 1.219-.265.594-.281 1.219-.86z"/><text x="233" y="32.78" fill="#D9B8FF" font-family="Helvetica" font-size="17" textLength="166">azure_mysql_server</text><rect width="360" height="39.789" x="7" y="106.79" fill="#3D176E" rx="2.5" ry="2.5" style="stroke:#000d19;stroke-width:.5"/><circle cx="22" cy="126.684" r="11" fill="#ADD1B2" style="stroke:#181818;stroke-width:1"/><path d="M24.969 132.325q-.578.297-1.219.438-.64.156-1.344.156-2.5 0-3.828-1.64-1.312-1.657-1.312-4.782t1.312-4.781q1.328-1.656 3.828-1.656.703 0 1.344.156.656.156 1.219.453v2.719q-.625-.579-1.219-.844-.594-.281-1.219-.281-1.343 0-2.031 1.078-.687 1.062-.687 3.156t.687 3.172q.688 1.062 2.031 1.062.625 0 1.219-.265.594-.281 1.219-.86z"/><text x="41" y="132.57" fill="#D9B8FF" font-family="Helvetica" font-size="17" textLength="318">azure_mysql_server_ad_administrator</text><rect width="222" height="39.789" x="192" y="206.58" fill="#3D176E" rx="2.5" ry="2.5" style="stroke:#000d19;stroke-width:.5"/><circle cx="207" cy="226.475" r="11" fill="#ADD1B2" style="stroke:#181818;stroke-width:1"/><path d="M209.969 232.115q-.578.297-1.219.438-.64.156-1.344.156-2.5 0-3.828-1.64-1.312-1.657-1.312-4.782t1.312-4.781q1.328-1.656 3.828-1.656.703 0 1.344.156.656.156 1.219.453v2.719q-.625-.578-1.219-.844-.594-.281-1.219-.281-1.344 0-2.031 1.078-.687 1.062-.687 3.156t.687 3.172q.688 1.062 2.031 1.062.625 0 1.219-.265.594-.281 1.219-.86z"/><text x="226" y="232.36" fill="#D9B8FF" font-family="Helvetica" font-size="17" textLength="180">microsoft_graph_user</text><path fill="none" d="M280.08 47.22c-20.33 17.14-45.304 38.181-65.624 55.321" style="stroke:#1a83af;stroke-width:2"/><path fill="#1A83AF" d="m209.87 106.41 9.458-2.745-5.636-.479.478-5.636z" style="stroke:#1a83af;stroke-width:2"/><path fill="none" d="M332.81 47.05c18.85 13.99 41.59 34.84 52.19 59.74 6.92 16.27 6.92 23.52 0 39.79-10.6 24.9-28.523 42.172-47.373 56.172" style="stroke:#1a83af;stroke-width:2"/><path fill="#1A83AF" d="m332.81 206.33 9.61-2.155-5.596-.826.826-5.596z" style="stroke:#1a83af;stroke-width:2"/><path fill="none" d="M209.92 147.01c20.33 17.14 45.304 38.181 65.624 55.321" style="stroke:#1a83af;stroke-width:2"/><path fill="#1A83AF" d="m280.13 206.2-4.3-8.86.478 5.636-5.637.479z" style="stroke:#1a83af;stroke-width:2"/></svg>
